public/images/tokens/metis.svg

<svg width="26" height="26" viewBox="0 0 26 26" fill="none" xmlns="http://www.w3.org/2000/svg">
<rect width="26" height="26" rx="13" fill="#313042"/>
<path d="M9.75102 19.3353C9.85102 19.0353 10.051 18.7353 10.151 18.3353C10.151 18.2353 10.151 18.0353 10.051 17.9353C9.45102 17.1353 9.25102 16.2353 9.45102 15.3353C9.45102 15.2353 9.45102 15.1353 9.55102 15.1353C9.55102 15.0353 9.65102 15.0353 9.65102 14.9353C10.351 15.6353 10.551 16.5353 10.651 17.4353C10.851 17.0353 11.151 16.6353 11.351 16.1353C11.351 16.0353 11.251 15.9353 11.251 15.8353C10.651 14.9353 10.551 13.9353 10.951 12.8353C11.651 13.5353 11.851 14.4353 11.851 15.3353C12.151 14.9353 12.351 14.5353 12.651 14.2353C12.651 14.1353 12.651 14.0353 12.551 13.9353C12.251 13.0353 12.251 12.1353 12.751 11.2353C12.851 11.1353 12.851 11.0353 12.951 10.9353C13.451 11.7353 13.351 12.5353 13.251 13.3353H13.351C13.551 13.0353 13.751 12.8353 13.851 12.5353C14.251 11.4353 14.851 10.6353 15.951 10.1353C16.151 10.0353 16.251 10.0353 16.451 9.93526C16.451 10.1353 16.451 10.2353 16.351 10.4353C16.051 11.4353 15.351 12.2353 14.351 12.7353C13.951 12.9353 13.651 13.2353 13.451 13.6353C14.251 13.2353 15.051 13.0353 16.051 13.3353C15.851 13.5353 15.751 13.6353 15.551 13.7353C14.851 14.2353 14.051 14.4353 13.251 14.3353C12.951 14.3353 12.851 14.3353 12.751 14.5353C12.551 14.8353 12.351 15.2353 12.151 15.6353C13.051 15.2353 13.951 15.0353 14.951 15.5353C14.651 15.7353 14.451 15.9353 14.251 16.0353C13.551 16.3353 12.851 16.4353 12.051 16.2353C11.851 16.1353 11.751 16.2353 11.651 16.4353C11.451 16.8353 11.251 17.2353 10.951 17.7353C11.851 17.3353 12.751 17.0353 13.751 17.4353L13.851 17.5353C13.751 17.6353 13.651 17.6353 13.451 17.7353C12.651 18.2353 11.851 18.4353 10.951 18.3353C10.751 18.2353 10.551 18.3353 10.551 18.5353C10.251 19.3353 9.95102 20.1353 9.65102 20.8353C9.55102 21.1353 9.35102 21.4353 9.15102 21.7353C9.05102 21.9353 8.85102 22.0353 8.65102 21.9353C5.95102 20.5353 4.05102 18.4353 3.35102 15.5353C1.95102 10.2353 4.85102 4.93526 10.051 3.43526C16.051 1.63526 21.951 5.63526 22.851 11.4353C23.551 16.1353 20.851 20.6353 16.451 22.2353C16.151 22.3353 15.951 22.4353 15.751 22.2353C15.551 21.9353 15.551 21.7353 15.651 21.4353C16.051 20.4353 16.351 19.4353 16.651 18.4353C16.851 17.8353 17.051 17.6353 17.651 17.6353C18.251 17.5353 18.851 17.5353 19.451 17.4353C19.951 17.3353 20.151 17.1353 20.151 16.6353C20.151 16.5353 20.151 16.3353 20.151 16.2353C20.051 16.0353 20.151 15.8353 20.351 15.6353C20.551 15.4353 20.551 15.3353 20.351 15.1353C20.251 15.0353 20.251 14.8353 20.351 14.8353C20.551 14.6353 20.551 14.4353 20.351 14.2353C20.151 14.0353 20.251 13.8353 20.451 13.7353C20.651 13.6353 20.751 13.5353 20.851 13.3353C21.151 13.1353 21.051 12.9353 20.851 12.7353C20.451 12.3353 19.951 12.0353 19.551 11.6353C19.251 11.4353 19.151 11.0353 19.251 10.7353C19.351 10.1353 19.251 9.63526 18.951 9.13526C18.651 8.73526 18.451 8.23526 18.251 7.83526C17.951 7.13526 17.451 6.63526 16.751 6.43526C16.051 6.23526 15.351 6.13526 14.551 6.03526C14.051 5.93526 13.551 5.93526 13.051 5.83526C11.751 5.63526 10.551 5.93526 9.55102 6.83526C9.25102 7.03526 8.95102 7.33526 8.55102 7.43526C8.25102 7.53526 8.05102 7.83526 7.85102 8.03526C7.75102 8.33526 7.55102 8.53526 7.25102 8.63526C6.75102 9.03526 6.25102 9.33526 5.85102 9.83526C5.75102 10.0353 5.45102 10.1353 5.35102 10.2353C4.75102 10.6353 4.65102 11.0353 4.85102 11.6353C4.95102 12.0353 5.05102 12.4353 4.95102 12.8353C4.85102 13.1353 4.85102 13.5353 4.95102 13.8353C4.95102 14.2353 5.25102 14.6353 5.65102 14.7353C5.95102 14.8353 6.15102 15.0353 6.15102 15.3353C6.25102 15.7353 6.45102 16.1353 6.75102 16.4353C7.05102 16.7353 7.25102 17.1353 7.45102 17.5353C7.65102 18.0353 7.95102 18.3353 8.45102 18.5353C8.95102 18.7353 9.35102 18.9353 9.85102 19.1353C9.55102 19.2353 9.65102 19.2353 9.75102 19.3353Z" fill="#00DACC"/>
</svg>

<svg width="26" height="26" fill="none" xmlns="http://www.w3.org/2000/svg"><rect width="26" height="26" rx="13" fill="#313042"/><path d="M9.751 19.335c.1-.3.3-.6.4-1 0-.1 0-.3-.1-.4-.6-.8-.8-1.7-.6-2.6 0-.1 0-.2.1-.2 0-.1.1-.1.1-.2.7.7.9 1.6 1 2.5.2-.4.5-.8.7-1.3 0-.1-.1-.2-.1-.3-.6-.9-.7-1.9-.3-3 .7.7.9 1.6.9 2.5.3-.4.5-.8.8-1.1 0-.1 0-.2-.1-.3-.3-.9-.3-1.8.2-2.7.1-.1.1-.2.2-.3.5.8.4 1.6.3 2.4h.1c.2-.3.4-.5.5-.8.4-1.1 1-1.9 2.1-2.4.2-.1.3-.1.5-.2 0 .2 0 .3-.1.5-.3 1-1 1.8-2 2.3-.4.2-.7.5-.9.9.8-.4 1.6-.6 2.6-.3-.2.2-.3.3-.5.4-.7.5-1.5.7-2.3.6-.3 0-.4 0-.5.2-.2.3-.4.7-.6 1.1.9-.4 1.8-.6 2.8-.1-.3.2-.5.4-.7.5-.7.3-1.4.4-2.2.2-.2-.1-.3 0-.4.2-.2.4-.4.8-.7 1.3.9-.4 1.8-.7 2.8-.3l.1.1c-.1.1-.2.1-.4.2-.8.5-1.6.7-2.5.6-.2-.1-.4 0-.4.2-.3.8-.6 1.6-.9 2.3-.1.3-.3.6-.5.9-.1.2-.3.3-.5.2-2.7-1.4-4.6-3.5-5.3-6.4-1.4-5.3 1.5-10.6 6.7-12.1 6-1.8 11.9 2.2 12.8 8 .7 4.7-2 9.2-6.4 10.8-.3.1-.5.2-.7 0-.2-.3-.2-.5-.1-.8.4-1 .7-2 1-3 .2-.6.4-.8 1-.8.6-.1 1.2-.1 1.8-.2.5-.1.7-.3.7-.8v-.4c-.1-.2 0-.4.2-.6.2-.2.2-.3 0-.5-.1-.1-.1-.3 0-.3.2-.2.2-.4 0-.6-.2-.2-.1-.4.1-.5.2-.1.3-.2.4-.4.3-.2.2-.4 0-.6-.4-.4-.9-.7-1.3-1.1-.3-.2-.4-.6-.3-.9.1-.6 0-1.1-.3-1.6-.3-.4-.5-.9-.7-1.3-.3-.7-.8-1.2-1.5-1.4-.7-.2-1.4-.3-2.2-.4-.5-.1-1-.1-1.5-.2-1.3-.2-2.5.1-3.5 1-.3.2-.6.5-1 .6-.3.1-.5.4-.7.6-.1.3-.3.5-.6.6-.5.4-1 .7-1.4 1.2-.1.2-.4.3-.5.4-.6.4-.7.8-.5 1.4.1.4.2.8.1 1.2-.1.3-.1.7 0 1 0 .4.3.8.7.9.3.1.5.3.5.6.1.4.3.8.6 1.1.3.3.5.7.7 1.1.2.5.5.8 1 1 .5.2.9.4 1.4.6-.3.1-.2.1-.1.2Z" fill="#00DACC"/></svg>
